X:62
M:2/4
L:1/8
K:G
|: d | d =f2 e/d/ | ccc>c | c e2 d/c/ | BBB>A | G g2 G/F/ | E e2 d/c/ | BA/G/ DF | G[DG][G,G] :|

